src/images/icons/expenses/hobbies.svg

<svg width="56" height="56" viewBox="0 0 56 56" fill="none" xmlns="http://www.w3.org/2000/svg">
<g clip-path="url(#clip0_15_625)">
<path d="M54.285 23.6511H50.9473C50.3287 23.6511 49.7835 23.9689 49.4648 24.4492C46.9133 24.1826 46.5732 23.7737 46.2976 23.4404C45.9225 22.9871 45.4777 22.6026 44.9753 22.2975L37.3058 17.6389C35.7438 14.0107 33.1312 11.7424 31.1923 10.4709C30.4374 9.97577 29.9867 9.13708 29.9867 8.22748C29.9867 7.69086 30.1447 7.17218 30.4438 6.72699L32.351 3.88837C32.7313 3.32312 32.8624 2.64465 32.721 1.97815C32.5796 1.31165 32.184 0.745117 31.6072 0.382385C31.2086 0.132446 30.7493 0 30.2793 0H21.2174C20.747 0 20.2877 0.132446 19.8895 0.382385C19.3128 0.74469 18.9171 1.31122 18.7757 1.97815C18.6343 2.64465 18.7655 3.32312 19.1457 3.88837L21.0529 6.72699C21.352 7.17218 21.5101 7.69086 21.5101 8.22748C21.5101 9.13708 21.0593 9.97577 20.3044 10.4709C17.4312 12.3551 11.0105 17.9084 13.4381 28.7618C14.7921 34.8154 15.838 39.0819 16.4669 41.1348H2.94069C1.82515 41.1348 0.849752 41.9278 0.62203 43.0198L0.15975 45.239C0.0136315 45.9401 0.188802 46.6608 0.640829 47.2167C1.09243 47.7721 1.76235 48.0908 2.47841 48.0908H49.0183C49.7348 48.0908 50.4043 47.7721 50.8563 47.2167C51.3079 46.6608 51.4831 45.9401 51.337 45.239L50.8747 43.0198C50.647 41.9278 49.6716 41.1348 48.5561 41.1348H35.0299C35.2179 40.5209 35.4447 39.704 35.7075 38.6923H36.5979C39.2105 38.6923 41.7996 38.3022 44.2956 37.5327L49.3939 36.8901C49.6985 37.4344 50.28 37.804 50.9473 37.804H54.285C55.2655 37.804 56.0636 37.0063 56.0636 36.0254V25.4301C56.0636 24.4492 55.2655 23.6511 54.285 23.6511ZM20.3809 2.31866C20.4292 2.09009 20.5646 1.89612 20.7624 1.77179C20.8991 1.68591 21.0564 1.64062 21.2174 1.64062H30.2793C30.4404 1.64062 30.598 1.68591 30.7343 1.77179C30.9322 1.89612 31.0676 2.09009 31.1163 2.31866C31.1646 2.54681 31.1193 2.77966 30.9894 2.97321L30.0456 4.37799H21.4511L20.5073 2.97321C20.377 2.77966 20.3322 2.54681 20.3809 2.31866ZM21.2038 11.8428C22.4231 11.0435 23.1511 9.69165 23.1511 8.22748C23.1511 7.44519 22.9401 6.68726 22.5427 6.01862H28.954C28.5567 6.68726 28.346 7.44519 28.346 8.22748C28.346 9.69165 29.0736 11.0435 30.293 11.8428C30.7954 12.1722 31.3479 12.5756 31.9135 13.0605H19.5879C20.1621 12.5674 20.7158 12.1628 21.2038 11.8428ZM49.2687 43.3548L49.731 45.5739C49.7925 45.8687 49.6648 46.0811 49.5832 46.1815C49.5015 46.2819 49.3195 46.4502 49.0183 46.4502H2.47841C2.17721 46.4502 1.9952 46.2819 1.91359 46.1815C1.83199 46.0811 1.70424 45.8687 1.76577 45.5739L2.22805 43.3548C2.29812 43.019 2.59804 42.7755 2.94069 42.7755H48.5556C48.8987 42.7755 49.1982 43.019 49.2687 43.3548ZM33.3081 41.1348H18.1887C17.8507 40.1278 16.9928 37.1362 15.039 28.4033C14.2153 24.7209 14.4123 21.3871 15.6205 18.4698H18.6424C19.0957 18.4698 19.4627 18.1028 19.4627 17.6495C19.4627 17.1962 19.0957 16.8292 18.6424 16.8292H16.434C16.8971 16.0311 17.4124 15.324 17.9469 14.7011H33.5559C34.0916 15.3257 34.6056 16.0333 35.0662 16.8292H21.9279C21.4746 16.8292 21.1076 17.1962 21.1076 17.6495C21.1076 18.1028 21.4746 18.4698 21.9279 18.4698H32.7988C32.5899 18.9804 32.5471 19.5418 32.6809 20.0878C32.8488 20.7701 33.2722 21.3469 33.872 21.7101L35.2824 22.5667H26.1649C24.717 22.5667 23.5429 23.6805 23.4925 25.1024C23.4788 25.481 23.5446 25.8488 23.6822 26.188H22.841C22.1202 26.188 21.4481 26.4734 20.9474 26.9921C20.4475 27.5104 20.1856 28.1931 20.2117 28.9143C20.2514 30.041 20.997 30.9741 22.0254 31.3133C21.8626 31.6551 21.7716 32.037 21.7716 32.4404C21.7716 33.8909 22.952 35.0714 24.4025 35.0714H25.6454C25.5207 35.3773 25.4519 35.7118 25.4519 36.0617C25.4519 37.5126 26.6323 38.6927 28.0828 38.6927H34.0117C33.667 39.9966 33.4452 40.7277 33.3081 41.1348ZM44.0191 35.9139C43.9708 35.9199 43.9239 35.9301 43.8777 35.9442C41.5185 36.6791 39.0691 37.0516 36.5979 37.0516H28.0828C27.5368 37.0516 27.0925 36.6073 27.0925 36.0613C27.0925 35.5153 27.5368 35.0709 28.0828 35.0709H33.4597C33.9126 35.0709 34.2801 34.7035 34.2801 34.2506C34.2801 33.7973 33.9126 33.4303 33.4597 33.4303H24.4025C23.8565 33.4303 23.4122 32.986 23.4122 32.4399C23.4122 31.8939 23.8565 31.4496 24.4025 31.4496H33.4597C33.9126 31.4496 34.2801 31.0826 34.2801 30.6293C34.2801 30.176 33.9126 29.809 33.4597 29.809H22.8841C22.333 29.809 21.8698 29.3813 21.851 28.8553C21.8416 28.5836 21.9399 28.326 22.1279 28.1307C22.3167 27.9359 22.5697 27.8282 22.841 27.8282H33.4597C33.9126 27.8282 34.2801 27.4608 34.2801 27.0079C34.2801 26.5546 33.9126 26.1876 33.4597 26.1876H26.1218C25.8505 26.1876 25.5971 26.08 25.4087 25.8847C25.2207 25.6899 25.1225 25.4323 25.1319 25.1601C25.1507 24.6346 25.6142 24.2069 26.1649 24.2069H37.472C37.9381 24.2069 38.3359 23.9053 38.4619 23.4562C38.5875 23.0072 38.4043 22.5428 38.0056 22.301L34.7231 20.307C34.4967 20.1699 34.3377 19.9532 34.2745 19.696C34.2113 19.4393 34.2519 19.1731 34.389 18.9471C34.6718 18.4797 35.2824 18.3301 35.7485 18.6121L44.1238 23.6993C44.4694 23.9091 44.7754 24.174 45.0334 24.4859C45.7042 25.2964 46.5655 25.7826 49.1683 26.0671V35.264L44.0191 35.9139ZM54.423 36.0254C54.423 36.1014 54.361 36.1634 54.285 36.1634H50.9473C50.8713 36.1634 50.8089 36.1014 50.8089 36.0254V25.4297C50.8089 25.3536 50.8709 25.2917 50.9473 25.2917H54.285C54.361 25.2917 54.423 25.3536 54.423 25.4297V36.0254Z" fill="#071F41"/>
<path d="M39.3344 53.3537L35.062 49.9165C34.709 49.6324 34.1925 49.6888 33.9088 50.0417C33.6247 50.3946 33.6807 50.9111 34.0336 51.1948L37.9677 54.3594H13.5292L17.4714 51.1884C17.8243 50.9047 17.8803 50.3882 17.5961 50.0353C17.3124 49.6819 16.7959 49.6264 16.443 49.9101L12.1624 53.3533C11.6638 53.7544 11.4793 54.4034 11.6916 55.0067C11.9039 55.61 12.4551 56 13.0947 56H38.4022C39.0418 56 39.5925 55.6104 39.8052 55.0067C40.0176 54.4034 39.833 53.7544 39.3344 53.3537Z" fill="#071F41"/>
</g>
<defs>
<clipPath id="clip0_15_625">
<rect width="56" height="56" fill="white"/>
</clipPath>
</defs>
</svg>

<!-- Generated by IcoMoon.io -->
<svg version="1.1" xmlns="http://www.w3.org/2000/svg" width="56" height="56" viewBox="0 0 56 56">
<title>hobbies</title>
<path d="M54.285 23.651h-3.338c-0.619 0-1.164 0.318-1.483 0.798-2.551-0.267-2.892-0.675-3.167-1.009-0.375-0.453-0.82-0.838-1.322-1.143l-7.669-4.659c-1.562-3.628-4.175-5.897-6.114-7.168-0.755-0.495-1.206-1.334-1.206-2.243 0-0.537 0.158-1.055 0.457-1.501l1.907-2.839c0.38-0.565 0.511-1.244 0.37-1.91s-0.537-1.233-1.114-1.596c-0.399-0.25-0.858-0.382-1.328-0.382h-9.062c-0.47 0-0.93 0.132-1.328 0.382-0.577 0.362-0.972 0.929-1.114 1.596s-0.010 1.345 0.37 1.91l1.907 2.839c0.299 0.445 0.457 0.964 0.457 1.501 0 0.91-0.451 1.748-1.206 2.243-2.873 1.884-9.294 7.438-6.866 18.291 1.354 6.054 2.4 10.32 3.029 12.373h-13.526c-1.116 0-2.091 0.793-2.319 1.885l-0.462 2.219c-0.146 0.701 0.029 1.422 0.481 1.978s1.122 0.874 1.838 0.874h46.54c0.717 0 1.386-0.319 1.838-0.874s0.627-1.277 0.481-1.978l-0.462-2.219c-0.228-1.092-1.203-1.885-2.319-1.885h-13.526c0.188-0.614 0.415-1.431 0.678-2.443h0.89c2.613 0 5.202-0.39 7.698-1.16l5.098-0.643c0.305 0.544 0.886 0.914 1.553 0.914h3.338c0.98 0 1.779-0.798 1.779-1.779v-10.595c0-0.981-0.798-1.779-1.779-1.779zM20.381 2.319c0.048-0.229 0.184-0.423 0.382-0.547 0.137-0.086 0.294-0.131 0.455-0.131h9.062c0.161 0 0.319 0.045 0.455 0.131 0.198 0.124 0.333 0.318 0.382 0.547s0.003 0.461-0.127 0.655l-0.944 1.405h-8.595l-0.944-1.405c-0.13-0.194-0.175-0.426-0.126-0.655zM21.204 11.843c1.219-0.799 1.947-2.151 1.947-3.615 0-0.782-0.211-1.54-0.608-2.209h6.411c-0.397 0.669-0.608 1.427-0.608 2.209 0 1.464 0.728 2.816 1.947 3.615 0.502 0.329 1.055 0.733 1.62 1.218h-12.326c0.574-0.493 1.128-0.898 1.616-1.218zM49.269 43.355l0.462 2.219c0.062 0.295-0.066 0.507-0.148 0.608s-0.264 0.269-0.565 0.269h-46.54c-0.301 0-0.483-0.168-0.565-0.269s-0.209-0.313-0.148-0.608l0.462-2.219c0.070-0.336 0.37-0.579 0.713-0.579h45.615c0.343 0 0.643 0.244 0.713 0.579zM33.308 41.135h-15.119c-0.338-1.007-1.196-3.999-3.15-12.732-0.824-3.682-0.627-7.016 0.581-9.933h3.022c0.453 0 0.82-0.367 0.82-0.82s-0.367-0.82-0.82-0.82h-2.208c0.463-0.798 0.978-1.505 1.513-2.128h15.609c0.536 0.625 1.050 1.332 1.51 2.128h-13.138c-0.453 0-0.82 0.367-0.82 0.82s0.367 0.82 0.82 0.82h10.871c-0.209 0.511-0.252 1.072-0.118 1.618 0.168 0.682 0.591 1.259 1.191 1.622l1.41 0.857h-9.117c-1.448 0-2.622 1.114-2.672 2.536-0.014 0.379 0.052 0.746 0.19 1.086h-0.841c-0.721 0-1.393 0.285-1.894 0.804s-0.762 1.201-0.736 1.922c0.040 1.127 0.785 2.060 1.814 2.399-0.163 0.342-0.254 0.724-0.254 1.127 0 1.45 1.18 2.631 2.631 2.631h1.243c-0.125 0.306-0.193 0.64-0.193 0.99 0 1.451 1.18 2.631 2.631 2.631h5.929c-0.345 1.304-0.567 2.035-0.704 2.442zM44.019 35.914c-0.048 0.006-0.095 0.016-0.141 0.030-2.359 0.735-4.809 1.107-7.28 1.107h-8.515c-0.546 0-0.99-0.444-0.99-0.99s0.444-0.99 0.99-0.99h5.377c0.453 0 0.82-0.367 0.82-0.82s-0.367-0.82-0.82-0.82h-9.057c-0.546 0-0.99-0.444-0.99-0.99s0.444-0.99 0.99-0.99h9.057c0.453 0 0.82-0.367 0.82-0.82s-0.367-0.82-0.82-0.82h-10.576c-0.551 0-1.014-0.428-1.033-0.954-0.009-0.272 0.089-0.529 0.277-0.725s0.442-0.302 0.713-0.302h10.619c0.453 0 0.82-0.367 0.82-0.82s-0.368-0.82-0.82-0.82h-7.338c-0.271 0-0.525-0.108-0.713-0.303s-0.286-0.452-0.277-0.725c0.019-0.525 0.482-0.953 1.033-0.953h11.307c0.466 0 0.864-0.302 0.99-0.751s-0.058-0.913-0.456-1.155l-3.283-1.994c-0.226-0.137-0.385-0.354-0.449-0.611s-0.023-0.523 0.115-0.749c0.283-0.467 0.893-0.617 1.359-0.335l8.375 5.087c0.346 0.21 0.652 0.475 0.91 0.787 0.671 0.811 1.532 1.297 4.135 1.581v9.197l-5.149 0.65zM54.423 36.025c0 0.076-0.062 0.138-0.138 0.138h-3.338c-0.076 0-0.138-0.062-0.138-0.138v-10.596c0-0.076 0.062-0.138 0.138-0.138h3.338c0.076 0 0.138 0.062 0.138 0.138v10.596z"></path>
<path d="M39.334 53.354l-4.272-3.437c-0.353-0.284-0.869-0.228-1.153 0.125s-0.228 0.869 0.125 1.153l3.934 3.165h-24.438l3.942-3.171c0.353-0.284 0.409-0.8 0.125-1.153s-0.8-0.409-1.153-0.125l-4.281 3.443c-0.499 0.401-0.683 1.050-0.471 1.653s0.763 0.993 1.403 0.993h25.308c0.64 0 1.19-0.39 1.403-0.993s0.028-1.252-0.471-1.653z"></path>
</svg>
